!!!OTL: "Der Tanzlustige" BIN I NET E PUESTLE
!!!ARE: Europa, Mitteleuropa, Deutschland, Schwaben
!!!SCT: Z1328
!!!YEM: Copyright 1995, estate of Helmut Schaffrath.
**kern
*ICvox
*Ivox
!! Mixed meters:  3/4; 2/4
*M3/4
*k[b-]
*F:
=1
{8.f
16g
8a
8b-
8cc
8a
=2
8cc
8r
8a
8f
4g}
=3
{8.f
16g
8a
8b-
8cc
8a
=4
8cc
8r
8a
8f
4g}
=5
*M2/4
{8cc
8a
8a
8cc
=6
8b-
8g
8g}
{8b-
=7
8a
8f
8f
8a
=8
8g
8e
4c}
=9
*M3/4
{8.f
16g
8a
8b-
8cc
8a
=10
8cc
8r
8a
8f
4g}
=11
{8.f
16g
8a
8b-
8cc
8a
=12
8cc
8r
8a
8f
4g}
=13
*M2/4
{8cc
8a
8a
8cc
=14
8b-
8g
8g
8r}
=15
*M3/4
{8.f
16g
8a
8b-
8cc
8a
=16
8cc
8r
8a
8f
4g}
=17
{8.f
16g
8a
8b-
8cc
8a
=18
8cc
8r
8a
8f
4g}
=19
{8cc
8a
8cc
8b-
8g
8b-}
=20
{8a
8f
8a
8g
8e
8g}
=21
{8.c
16d
8e
8f
4r}
=22
{8.c
16d
8e
8f
4r}
==
!!!AGN: Zech -, Schalks - Lied
!!!ONB: ESAC (Essen Associative Code) Database: ZUCCAL
!!!AMT: irregular
!!!AIN: vox
!!!EED: Helmut Schaffrath
!!!EEV: 1.0
*-
